images/ic-team.svg

<svg height="24" viewBox="0 0 24 24" width="24" xmlns="http://www.w3.org/2000/svg"><g fill="none" fill-rule="evenodd"><path d="m0 0h24v24h-24z"/><g fill-rule="nonzero" transform="translate(2 5)"><circle cx="7" cy="3.5" fill="#e0be41" r="1.5"/><path d="m2.34 12h9.32c-.84-.58-2.87-1.25-4.66-1.25s-3.82.67-4.66 1.25z" fill="#e0be41"/><g fill="#3e4241"><path d="m7 7c1.93 0 3.5-1.57 3.5-3.5s-1.57-3.5-3.5-3.5-3.5 1.57-3.5 3.5 1.57 3.5 3.5 3.5zm0-5c.83 0 1.5.67 1.5 1.5s-.67 1.5-1.5 1.5-1.5-.67-1.5-1.5.67-1.5 1.5-1.5z"/><path d="m7 8.75c-2.34 0-7 1.17-7 3.5v1.75h14v-1.75c0-2.33-4.66-3.5-7-3.5zm-4.66 3.25c.84-.58 2.87-1.25 4.66-1.25s3.82.67 4.66 1.25z"/><path d="m14.04 8.81c1.16.84 1.96 1.96 1.96 3.44v1.75h4v-1.75c0-2.02-3.5-3.17-5.96-3.44z"/><path d="m13 7c1.93 0 3.5-1.57 3.5-3.5s-1.57-3.5-3.5-3.5c-.54 0-1.04.13-1.5.35.63.89 1 1.98 1 3.15s-.37 2.26-1 3.15c.46.22.96.35 1.5.35z"/></g></g></g></svg>

<?xml version="1.0" encoding="UTF-8"?>
<svg width="24px" height="24px" viewBox="0 0 24 24" version="1.1" xmlns="http://www.w3.org/2000/svg" xmlns:xlink="http://www.w3.org/1999/xlink">
    <!-- Generator: Sketch 50.2 (55047) - http://www.bohemiancoding.com/sketch -->
    <title>Artboard</title>
    <desc>Created with Sketch.</desc>
    <defs></defs>
    <g id="Artboard" stroke="none" stroke-width="1" fill="none" fill-rule="evenodd">
        <g id="twotone-group-24px">
            <g id="Bounding_Boxes">
                <polygon id="Shape" points="0 0 24 0 24 24 0 24"></polygon>
            </g>
            <g id="Duotone" transform="translate(2.000000, 5.000000)" fill-rule="nonzero">
                <g id="Group">
                    <circle id="Oval" fill="#E0BE41" cx="7" cy="3.5" r="1.5"></circle>
                    <path d="M2.34,12 L11.66,12 C10.82,11.42 8.79,10.75 7,10.75 C5.21,10.75 3.18,11.42 2.34,12 Z" id="Shape" fill="#E0BE41"></path>
                    <path d="M7,7 C8.93,7 10.5,5.43 10.5,3.5 C10.5,1.57 8.93,0 7,0 C5.07,0 3.5,1.57 3.5,3.5 C3.5,5.43 5.07,7 7,7 Z M7,2 C7.83,2 8.5,2.67 8.5,3.5 C8.5,4.33 7.83,5 7,5 C6.17,5 5.5,4.33 5.5,3.5 C5.5,2.67 6.17,2 7,2 Z" id="Shape" fill="#3E4241"></path>
                    <path d="M7,8.75 C4.66,8.75 0,9.92 0,12.25 L0,14 L14,14 L14,12.25 C14,9.92 9.34,8.75 7,8.75 Z M2.34,12 C3.18,11.42 5.21,10.75 7,10.75 C8.79,10.75 10.82,11.42 11.66,12 L2.34,12 Z" id="Shape" fill="#3E4241"></path>
                    <path d="M14.04,8.81 C15.2,9.65 16,10.77 16,12.25 L16,14 L20,14 L20,12.25 C20,10.23 16.5,9.08 14.04,8.81 Z" id="Shape" fill="#3E4241"></path>
                    <path d="M13,7 C14.93,7 16.5,5.43 16.5,3.5 C16.5,1.57 14.93,0 13,0 C12.46,0 11.96,0.13 11.5,0.35 C12.13,1.24 12.5,2.33 12.5,3.5 C12.5,4.67 12.13,5.76 11.5,6.65 C11.96,6.87 12.46,7 13,7 Z" id="Shape" fill="#3E4241"></path>
                </g>
            </g>
        </g>
    </g>
</svg>
